resources/haticons/SVG/legend_toggle.svg

<!-- Generated by IcoMoon.io -->
<svg version="1.1" xmlns="http://www.w3.org/2000/svg" width="24" height="24" viewBox="0 0 24 24">
<title>legend_toggle</title>
<path d="M20.016 15h-16.031v-2.016h16.031v2.016zM20.016 17.016h-16.031v1.969h16.031v-1.969zM15 11.016l5.016-3.563v-2.438l-5.016 3.516-5.016-3.516-6 3.656v2.344l5.953-3.609z"></path>
</svg>

<svg xmlns="http://www.w3.org/2000/svg" width="24" height="24"><path d="M20.016 15H3.985v-2.016h16.031V15zm0 2.016H3.985v1.969h16.031v-1.969zm-5.016-6l5.016-3.563V5.015L15 8.531 9.984 5.015l-6 3.656v2.344l5.953-3.609z"/></svg>
